src/assets/lock-card-icon.svg

<svg width="16" height="17" viewBox="0 0 16 17" fill="none" xmlns="http://www.w3.org/2000/svg">
<path d="M7.94941 9.03096C7.74773 9.0286 7.55017 9.08809 7.38332 9.20141C7.21646 9.31473 7.08834 9.47644 7.01617 9.66478C6.94401 9.85313 6.93128 10.0591 6.9797 10.2549C7.02811 10.4507 7.13535 10.6269 7.28697 10.7599V11.6807C7.28697 11.8564 7.35676 12.0249 7.48099 12.1491C7.60522 12.2734 7.77372 12.3431 7.94941 12.3431C8.1251 12.3431 8.29359 12.2734 8.41782 12.1491C8.54205 12.0249 8.61185 11.8564 8.61185 11.6807V10.7599C8.76347 10.6269 8.8707 10.4507 8.91912 10.2549C8.96753 10.0591 8.9548 9.85313 8.88264 9.66478C8.81048 9.47644 8.68235 9.31473 8.5155 9.20141C8.34865 9.08809 8.15109 9.0286 7.94941 9.03096ZM11.2616 6.38121V5.05633C11.2616 4.17788 10.9126 3.33541 10.2915 2.71426C9.67032 2.0931 8.82785 1.74414 7.94941 1.74414C7.07096 1.74414 6.22849 2.0931 5.60733 2.71426C4.98618 3.33541 4.63722 4.17788 4.63722 5.05633V6.38121C4.11015 6.38121 3.60467 6.59058 3.23197 6.96328C2.85928 7.33597 2.6499 7.84145 2.6499 8.36852V13.0056C2.6499 13.5327 2.85928 14.0381 3.23197 14.4108C3.60467 14.7835 4.11015 14.9929 4.63722 14.9929H11.2616C11.7887 14.9929 12.2941 14.7835 12.6668 14.4108C13.0395 14.0381 13.2489 13.5327 13.2489 13.0056V8.36852C13.2489 7.84145 13.0395 7.33597 12.6668 6.96328C12.2941 6.59058 11.7887 6.38121 11.2616 6.38121ZM5.96209 5.05633C5.96209 4.52926 6.17147 4.02378 6.54416 3.65109C6.91686 3.27839 7.42234 3.06902 7.94941 3.06902C8.47648 3.06902 8.98196 3.27839 9.35465 3.65109C9.72734 4.02378 9.93672 4.52926 9.93672 5.05633V6.38121H5.96209V5.05633ZM11.924 13.0056C11.924 13.1813 11.8542 13.3498 11.73 13.474C11.6058 13.5982 11.4373 13.668 11.2616 13.668H4.63722C4.46153 13.668 4.29303 13.5982 4.1688 13.474C4.04457 13.3498 3.97478 13.1813 3.97478 13.0056V8.36852C3.97478 8.19283 4.04457 8.02434 4.1688 7.90011C4.29303 7.77588 4.46153 7.70608 4.63722 7.70608H11.2616C11.4373 7.70608 11.6058 7.77588 11.73 7.90011C11.8542 8.02434 11.924 8.19283 11.924 8.36852V13.0056Z" fill="#9390A0"/>
</svg>

<svg width="16" height="17" fill="none" xmlns="http://www.w3.org/2000/svg"><path d="M7.95 9.031a.987.987 0 00-.663 1.729v.92a.662.662 0 101.325 0v-.92a.987.987 0 00-.663-1.729zm3.312-2.65V5.056a3.312 3.312 0 00-6.625 0v1.325A1.987 1.987 0 002.65 8.37v4.637a1.987 1.987 0 001.987 1.987h6.625a1.987 1.987 0 001.987-1.987V8.369a1.987 1.987 0 00-1.987-1.988zm-5.3-1.325a1.987 1.987 0 013.975 0v1.325H5.962V5.056zm5.962 7.95a.662.662 0 01-.662.662H4.637a.663.663 0 01-.662-.662V8.369a.662.662 0 01.662-.663h6.625a.662.662 0 01.662.663v4.637z" fill="#9390A0"/></svg>
